assets/img/icon/21.svg

<svg width="41" height="41" viewBox="0 0 41 41" fill="none" xmlns="http://www.w3.org/2000/svg">
<g id="web-development (1) 1" clip-path="url(#clip0_4189_36250)">
<path id="Vector" d="M40.5 9.95312V4.09375C40.5 2.15523 38.9229 0.578125 36.9844 0.578125H4.01562C2.07711 0.578125 0.5 2.15523 0.5 4.09375V9.95312H40.5ZM27.5312 5.26562H34.5625C35.2097 5.26562 35.7344 5.79031 35.7344 6.4375C35.7344 7.08469 35.2097 7.60938 34.5625 7.60938H27.5312C26.8841 7.60938 26.3594 7.08469 26.3594 6.4375C26.3594 5.79031 26.8841 5.26562 27.5312 5.26562ZM15.8125 5.26562C16.4597 5.26562 16.9844 5.79031 16.9844 6.4375C16.9844 7.08469 16.4597 7.60938 15.8125 7.60938C15.1653 7.60938 14.6406 7.08469 14.6406 6.4375C14.6406 5.79031 15.1653 5.26562 15.8125 5.26562ZM11.125 5.26562C11.7722 5.26562 12.2969 5.79031 12.2969 6.4375C12.2969 7.08469 11.7722 7.60938 11.125 7.60938C10.4778 7.60938 9.95312 7.08469 9.95312 6.4375C9.95312 5.79031 10.4778 5.26562 11.125 5.26562ZM6.4375 5.26562C7.08469 5.26562 7.60938 5.79031 7.60938 6.4375C7.60938 7.08469 7.08469 7.60938 6.4375 7.60938C5.79031 7.60938 5.26562 7.08469 5.26562 6.4375C5.26562 5.79031 5.79031 5.26562 6.4375 5.26562Z" fill="#1C1D20"/>
<path id="Vector_2" d="M0.5 12.2969V36.9062C0.5 38.8448 2.07711 40.4219 4.01562 40.4219H36.9844C38.9229 40.4219 40.5 38.8448 40.5 36.9062V12.2969H0.5ZM14.2008 28.9599C14.7062 29.3642 14.7881 30.1016 14.3838 30.607C13.9796 31.1123 13.242 31.1944 12.7367 30.79L6.87734 26.1025C6.29148 25.634 6.29109 24.7413 6.87734 24.2723L12.7367 19.5848C13.2419 19.1805 13.9795 19.2624 14.3838 19.7678C14.7881 20.2732 14.7062 21.0107 14.2008 21.4149L9.48531 25.1875L14.2008 28.9599ZM25.0927 17.446L18.0615 33.8523C17.8066 34.447 17.1178 34.7228 16.5227 34.4677C15.9279 34.2128 15.6523 33.5238 15.9073 32.929L22.9385 16.5227C23.1935 15.9279 23.8824 15.6523 24.4773 15.9073C25.0721 16.1622 25.3477 16.8511 25.0927 17.446ZM34.1227 26.1026L28.2633 30.7901C27.7587 31.1938 27.0211 31.1132 26.6162 30.6071C26.2119 30.1017 26.2938 29.3642 26.7992 28.96L31.5147 25.1875L26.7992 21.4151C26.2938 21.0108 26.2119 20.2734 26.6162 19.768C27.0204 19.2626 27.7579 19.1806 28.2633 19.585L34.1227 24.2725C34.7085 24.741 34.7089 25.6337 34.1227 26.1026Z" fill="#1C1D20"/>
</g>
<defs>
<clipPath id="clip0_4189_36250">
<rect width="40" height="40" fill="white" transform="translate(0.5 0.5)"/>
</clipPath>
</defs>
</svg>

<svg xmlns="http://www.w3.org/2000/svg" width="41" height="41" fill="none" viewBox="0 0 41 41"><g fill="#1c1d20" clip-path="url(#a)"><path d="M40.5 9.953v-5.86A3.52 3.52 0 0 0 36.984.579H4.016A3.52 3.52 0 0 0 .5 4.094v5.86zM27.531 5.266h7.032a1.172 1.172 0 0 1 0 2.343H27.53a1.172 1.172 0 0 1 0-2.343m-11.718 0a1.172 1.172 0 1 1 0 2.343 1.172 1.172 0 0 1 0-2.343m-4.688 0a1.172 1.172 0 1 1 0 2.343 1.172 1.172 0 0 1 0-2.343m-4.687 0a1.172 1.172 0 1 1 0 2.343 1.172 1.172 0 0 1 0-2.343M.5 12.297v24.61a3.52 3.52 0 0 0 3.516 3.515h32.968a3.52 3.52 0 0 0 3.516-3.516v-24.61zM14.2 28.96a1.172 1.172 0 1 1-1.463 1.83l-5.86-4.687a1.172 1.172 0 0 1 0-1.83l5.86-4.688a1.172 1.172 0 1 1 1.464 1.83l-4.716 3.773zm10.893-11.514L18.06 33.852a1.172 1.172 0 1 1-2.154-.923l7.032-16.406a1.172 1.172 0 0 1 2.154.923m9.03 8.657-5.86 4.687a1.172 1.172 0 0 1-1.464-1.83l4.716-3.773-4.716-3.772a1.172 1.172 0 1 1 1.464-1.83l5.86 4.688a1.172 1.172 0 0 1 0 1.83"/></g><defs><clipPath id="a"><path fill="#fff" d="M.5.5h40v40H.5z"/></clipPath></defs></svg>
